X: 60
T: Deus tuorum militum I
N: Derived from Mar2023-Deus_tuorum_militum_I.krn
C: Johannes Martini
%%abc-version 2.0
%%abcx-abcm2ps-target-version 5.9.1 (29 Sep 2008)
%%abc-creator hum2abc beta
%%abcx-conversion-date 2019/02/17 07:19:42
%%abc-edited-by Jesse Rodin
%%abc-edited-by Chris Gage 08-15-2014
%%abcx-initial-encoding-date 2014/10/05/
%%humdrum-veritas 335251575
%%humdrum-veritas-data 1529440986
%%linebreak <none>
%%barnumbers 0
L: 1/4
M: 4/2
Q: 1/2=120
V: 1 clef=treble
V: 2 clef=treble-8
V: 3 clef=bass
K: C
[V:1] E8- | 
[V:2] B8 | 
[V:3] E,8- | 
[V:1] E8 | 
[V:2] c8 | 
[V:3] E,8 | 
[V:1] F8 | 
[V:2] d6c2 | 
[V:3] D,8 | 
[V:1] E6DC | 
[V:2] B6AG | 
[V:3] E,4G,4 | 
[V:1] D3EF2G2- | 
[V:2] A3Bc2d2 | 
[V:3] F,3G,A,2G,2 | 
[V:1] G2A2B4 | 
[V:2] G2F2D3E | 
[V:3] B,2C2D4 | 
[V:1] A2c4BA | 
[V:2] F4C4 | 
[V:3] C8 | 
[V:1] G2A4^G2 | 
[V:2] E2F2E4 | 
[V:3] B,2A,2B,4 | 
[V:1] A8 | 
[V:2] z2c4d2 | 
[V:3] A,4z4 | 
[V:1] z8 | 
[V:2] e4d2g2- | 
[V:3] C4B,4 | 
[V:1] z4c4 | 
[V:2] g2^fe^f4 | 
[V:3] A,4A,4 | 
[V:1] B4A4 | 
[V:2] g4c3d | 
[V:3] G,4A,3B, | 
[V:1] A4G4 | 
[V:2] e2f2d4 | 
[V:3] C2D2B,4 | 
[V:1] A3Bc3B | 
[V:2] c4F2G2 | 
[V:3] A,6B,2 | 
[V:1] AGA4G2- | 
[V:2] A3Bc2B2 | 
[V:3] C4F,2G,2 | 
[V:1] G2^FEF4 | 
[V:2] G2d4c2 | 
[V:3] B,4A,4 | 
[V:1] G4z4 | 
[V:2] d4d2e2- | 
[V:3] G,3A,B,2C2- | 
[V:1] G3AB2c2- | 
[V:2] ecd2e2f2- | 
[V:3] C2B,2G,2A,2- | 
[V:1] c2B2A4 | 
[V:2] f2e4d2 | 
[V:3] A,2G,2F,4 | 
[V:1] G4z2A2- | 
[V:2] e2c2d3c | 
[V:3] E,4D,3E, | 
[V:1] A2GFE3F | 
[V:2] A4z2G2- | 
[V:3] F,4G,3A, | 
[V:1] G2A4G2 | 
[V:2] G2D2G4 | 
[V:3] _B,2A,2B,4 | 
[V:1] A4z4 | 
[V:2] F8 | 
[V:3] A,4C2A,2 | 
[V:1] G4A4 | 
[V:2] E2G2F2A2 | 
[V:3] B,4C4 | 
[V:1] B4G4 | 
[V:2] G2D2G2E2 | 
[V:3] D4B,4 | 
[V:1] A4G4 | 
[V:2] F4E4 | 
[V:3] A,4B,2C2 | 
[V:1] F2EDE4 | 
[V:2] D4A4 | 
[V:3] D2D4^C2 | 
[V:1] D4E3F | 
[V:2] B2G2B3c | 
[V:3] D4G,3A, | 
[V:1] G2A4G2 | 
[V:2] d2e4d2 | 
[V:3] B,2C4B,2 | 
[V:1] E2F4E2- | 
[V:2] B2c4B2- | 
[V:3] G,2A,4G,2 | 
[V:1] E2D2E4 ||  
[V:2] B2A2B4 ||  
[V:3] F,4E,4 ||  
[V:1] z8 | 
[V:2] E4F4 | 
[V:3] z8 | 
[V:1] E4F4 | 
[V:2] E4D4 | 
[V:3] z8 | 
[V:1] E4D4 | 
[V:2] G4A2d2- | 
[V:3] E,4F,4 | 
[V:1] G4A4 | 
[V:2] d2c2d4- | 
[V:3] E,4D,4 | 
[V:1] B4c2B2- | 
[V:2] d2cBA2G2 | 
[V:3] G,4A,2B,2 | 
[V:1] BAA4^G2 | 
[V:2] A2D2E4 | 
[V:3] C2D2B,4 | 
[V:1] A4z4 | 
[V:2] e4f4 | 
[V:3] A,8 | 
[V:1] B4c4- | 
[V:2] d4c2A2- | 
[V:3] z8 | 
[V:1] c2B2A4 | 
[V:2] AGG4^F2 | 
[V:3] z8 | 
[V:1] G8 | 
[V:2] G4z2g2- | 
[V:3] B,4C4 | 
[V:1] A4B4 | 
[V:2] g2f2g2G2- | 
[V:3] A,4G,4 | 
[V:1] c4B2G2- | 
[V:2] G2F2G4 | 
[V:3] A,4B,4 | 
[V:1] G2A3GG2- | 
[V:2] C2F2G2E2 | 
[V:3] C4B,2G,2 | 
[V:1] G2^F2G4 | 
[V:2] D4d4 | 
[V:3] A,4G,4- | 
[V:1] z4G4 | 
[V:2] e6d2 | 
[V:3] G,4z4 | 
[V:1] A2c4B2 | 
[V:2] c4d4 | 
[V:3] z4G,4 | 
[V:1] A4G4 | 
[V:2] c2e3dg2- | 
[V:3] A,2C4G,2 | 
[V:1] z4B4 | 
[V:2] g2^f2g2d2- | 
[V:3] A,4G,4- | 
[V:1] G3AB2c2 | 
[V:2] dcB4AG | 
[V:3] G,4z4 | 
[V:1] A4G4 | 
[V:2] ^F3EG2d2- | 
[V:3] z4B,4 | 
[V:1] z8 | 
[V:2] d2e2d2g2- | 
[V:3] G,3A,B,2C2 | 
[V:1] z4B4 | 
[V:2] g2^f2g2d2- | 
[V:3] A,4G,4 | 
[V:1] G4A4 | 
[V:2] d2c2d2A2 | 
[V:3] E,4D,2F,2 | 
[V:1] G2F3ED2- | 
[V:2] B2c2B2A2- | 
[V:3] G,2A,2D,4 | 
[V:1] D2^C2D4 | 
[V:2] A2G2A4 | 
[V:3] E,4D,4- | 
[V:1] z4E4 | 
[V:2] B4c4 | 
[V:3] D,4z4 | 
[V:1] F2G4FE | 
[V:2] d2e3dcB | 
[V:3] z4E,4 | 
[V:1] D4G4 | 
[V:2] A2B3cd2- | 
[V:3] F,2G,4F,E, | 
[V:1] A2F2G2E2- | 
[V:2] dAd2c2B2- | 
[V:3] D,4E,2G,2 | 
[V:1] E2D2E4 |]  
[V:2] B2A2B4 |]  
[V:3] F,4E,4 |]  



